X:1
T:Title
%%score ( 1 2 ) ( 3 4 )
L:1/8
Q:1/4=100
M:4/4
K:C
V:1 treble nm="Midi_20"
V:2 treble 
V:3 bass nm="Midi_20"
V:4 bass 
V:1
"^Colyton (65. 65. D)""^William Henry Monk\n(1823-89)""^Godfrey Thring\n(1823-1903)" E2 G2 A2 B2 | %1
 c4 c4 | B2 A2 G2 F2 | E8 || E2 E2 F2 E2 | E4 A4 | G2 F2 E2 D2 | E8 || G2 G2 c2 B2 | B4 A4 | %10
 A2 A2 d2 c2 | B8 || B2 B2 c2 d2 | e4 c4 | G2 G2 A2 G2 | c8 |] %16
V:2
 C2 E2 F2 F2 | E4 E4 | G2 F2 E2 D2 | C8 || C2 E2 D2 D2 | C4 (C2 D2) | E2 D2 C2 B,2 | C8 || %8
 G2 F2 E2 G2 | G4 F4 | F2 G2 ^F2 A2 | G8 || G2 D2 E2 F2 | G4 E4 | E2 E2 F2 F2 | E8 |] %16
V:3
 C2 C2 C2 C2 | G,4 C4 | C2 C2 G,2 G,2 | G,8 || A,2 A,2 A,2 ^G,2 | A,4 (A,2 B,2) | C2 A,2 G,2 G,2 | %7
 G,8 || %8
"^1. From the eastern mountains,\nPressing on, they come,\nWise men in their wisdom,\nTo His humble home,\nStirred by deep devotion,\nHasting from afar,\nEver journeying onwards,\nGuided by a star.\n\n2. There their Lord and Saviour\nMeek and lowly, lay,\nWondrous light that led them\nOnward on their way,\nEver now to lighten\nNations from afar,\nAs they journey homeward\nBy that guiding star.\n\n3. Thou who in a manger\nOnce hast lowly lain,\nWho dost now in glory\nO'er all kingdoms reign,\nGather in the heathen,\nWho, in lands afar\nNe'er have seen the brightness\nOf Thy guiding star." C2 B,2 C2 C2 | %9
 C4 C4 | C2 ^C2 D2 D2 | D8 || %12
"^4. Gather in the outcasts,\nAll who've gone astray,\nThrow Thy radiance o'er them,\nGuide them on their way;\nThose who never knew Thee,\nThose who've wandered far,\nGuide them by the brightness\nOf Thy guiding star.\n\n5. Onward through the darkness\nOf the lonely night,\nShining still before them\nWith Thy kindly light,\nGuide them, Jew and Gentile,\nHomeward from afar,\nYoung and old together,\nBy Thy guiding star." D2 G,2 G,2 G,2 | %13
 G,4 C4 | C2 C2 B,2 B,2 | C8 |] %16
V:4
 C,2 C,2 F,2 D,2 | C,4 C,4 | E,2 F,2 B,,2 B,,2 | C,8 || A,,2 C,2 D,2 E,2 | A,4 F,4 | %6
 E,2 F,2 G,2 G,,2 | C,8 || E,2 D,2 C,2 E,2 | F,4 F,4 | F,2 E,2 D,2 ^F,2 | G,8 || G,2 F,2 E,2 D,2 | %13
 C,4 (C,2 E,2) | G,2 G,2 G,2 G,2 | C,8 |] %16

